X: 864
T: Alejator, The
R: jig
M: 6/8
K: Gmajor
|:B/c/dB cBA|agf gdB|gdB GBd|e3e2f|
g3f3|gfd cAB|cdc BAG|1 FGA cBA:|2 F3F3||
|:cdc BAG|FGE3G|FGD3G|FGE3B|cdc BAG|
FGD4|1 FED FGA|DEF GAd:|2 FGA cBA|B/c/dB cBA||

